X:380
T: UND WAS THUAT DENN DER JAEGERBUA
N: F0676
O: Europa, Mitteleuropa, Oesterreich, Kaernten
R: Staende -, Jaeger - Lied; Jodler
M: 3/4
L: 1/16
K: A
E2C2 | D2F2d6cB | c3AE4z4
D2E2G4c2B2 | B2A6
E2C2 | D2F2f4e2d2 | g3dc6
E2 | E2G2G6dG | A8
E2C2 | D2F2d6cB | c3AE4z4
D2E2G4c2B2 | B2A6
E2C2 | D2F2f4e2d2 | g3dc6
E2 | E2G2G6dG | A8
E2F2G2 | A2a8gf | e6cEA3
A | Ge4dEG4
G | Ae3-e2cEA
EFG | A2a8gf | e6c2EA2
A | Gg3-g2gfe3G | A8

